X:1
T: The Den Burn
C:
R:Reel
Q: 232
K:Eb
M:4/4
L:1/8
G2|:CD EF G4|Bc de f2 ed|e3d ed ef|g2 c2 c2 ef|
|1gf eg f2 ed|ed ce d2 c=B|c3e gf ed|e2 c2 GF ED:|
|2gf eg fe df|ed ce dc =Bd|c=B ce gf ed|e2 c2 c2 ef|
|:g3f ef ge|fG =Bd gf ed|eA ce G=B dg|e2 c2 c2 ef|
|1gf eg f2 ed|ed ce d2 c=B|c3e gf ed|e2 c2 c2 ef:|
|2gf eg fe df|ed ce dc =Bd|c=B ce gf ed|e2 c2 c2:|
